X:4617
T:Each Has A Lover But Me. HSJJ.195
M:6/8
L:1/8
Q:100
S:HSJ Jackson,Wyresdale,Lancs.1823
R:Air
O:England
A:Lancashire
H:1823
Z:Chris Partington
K:C
G|"Lively"c>Bc AcA|G3E2G|ABc fed|c3-B2G|c>Bc AcA|G3E2c|!
BAA cBB|dczz2c|cee ece|g3d2d|dcA edc|cBzz2d|!
e^fg gfe|d2zzdd|e^fg gfe|edzz2g|egzz2e|dgzz2d|dgB AGA|!
B3G2G|cBc DEG|A3G2G|ABc fed|c3-BBB|cBc DEG|!
A3G2c|cAA GcB|c3-c2e|ed^c dfz|dcB c"hold"ec|cAA Ged|c3-c2|]
% Output from ABC2Win  Version 2.1 h on 13/06/99
